!!!OTL: Ach Gott in deinem hoechsten Thron. / (Andere Lesart.)
!!!ARE: Europa, Mitteleuropa, Deutschland
!!!SCT: A0390B
!!!TXL: @@GMH
!!!YEM: Copyright 1995, estate of Helmut Schaffrath.
**kern	**text
!! Mixed meters:  4/2; 6/2
*M4/2yy	*
*clefC4	*
*k[]	*
*C:ion	*
=1	=1
!LO:TX:a:t=jon.	!
1ryy	.
2ryy	.
{2c	Nun
=2	=2
2c	hört
2c	ir
2B	Chri-
2c	-ſten
=3	=3
*M6/2	*
2d	al-
2c	-le
1B	gar,
2r}	.
{2B	was
=4	=4
*M4/2	*
2c	ich
2d	euch
2e	ſing,
2c	das
=5	=5
1.d	ne-
4c	.
4B	.
=6	=6
2A/	.
2G	.
1A	-ment
=7	=7
*M6/2	*
1G	war
2r}	.
{2G	mit
2G	dank-
2A/	-ſa-
=8	=8
*M4/2	*
1B	-gung
2c	ʒu
1B	got-
=9-	=9-
.	.
4A/	.
4G	.
2A/	.
2G	.
=10	=10
1E	-te,
2r}	.
{2A/	der
=11	=11
2A/	vns
2A/	lie-
2A/	-bet
2A/	ʒu
=12	=12
2G	al-
2E	-ler
1C	ſtund,
=13	=13
2r}	.
{2C	be-
2G	-ſchütʒt
2A/	vns
=14	=14
2B	vor
2c	dem
2d	türk-
2d	-ſchen
=15	=15
1c	hund,
1r}	.
=16	=16
{1c	hilft
2B	uns
2A	aus
=17	=17
2G	al-
2G	-ler
2.C	no-
4D	.
=18	=18
4E	.
4F	.
1G	.
4F	.
4E	.
=19	=19
1D	.
1C}	-te.
==	==
!!!GTL: Einige historisch-politische Lieder
!!!AGN: Romanze, Ballade, Lied, religioeses Lied
!! Hs. aus dem 16. Jh.
!!!ONB: ESAC (Essen Associative Code) Database: ALTDEU
!!!AMT: irregular
!!!AIN: vox
!!!EED: Helmut Schaffrath
!!!EEV: 1.0
!!!AMD: Ionian
!!!URL-scan: https://rosdok.uni-rostock.de/mcrviewer/recordIdentifier/rosdok_ppn738218359/iview2/phys_0558.iview2?x=291.93651256979274&y=1316.424248907715&scale=0.7339823589333702&rotation=0&layout=singlePageLayout&logicalDiv=log_0014
!!!ENC: Anna Maria Matuszewska
!!!EEV: 2024/14/03
*-	*-
